docs/icons/apifoxcn.svg

<svg xmlns="http://www.w3.org/2000/svg" xmlns:xlink="http://www.w3.org/1999/xlink" width="32" height="32" fill="none" xmlns:v="https://vecta.io/nano"><defs><path id="A" d="M0 0h32v32H0z"/></defs><g transform="matrix(1 0 0 1 0 0)"><mask id="B" fill="#fff"><use xlink:href="#A"/></mask><g mask="url(#B)"><g transform="matrix(1 0 0 1 0 0)"><g transform="matrix(1 0 0 1 6 6.722925)" fill-rule="evenodd" fill="#fff"><path transform="translate(0 .009)" d="M4.6 3.53a4.99 4.99 0 0 1 .09-.94c.05-.31.14-.61.25-.91.11-.29.24-.57.4-.83A4.8 4.8 0 0 1 5.97 0c-.8.37-1.55.83-2.24 1.39C2 2.8.79 4.75.27 6.92.09 7.69 0 8.48 0 9.27c0 1.7.42 3.38 1.24 4.87.06-.49.18-.97.37-1.42a9.75 9.75 0 0 0 2.84 3.81c1.25 1.02 2.73 1.71 4.32 2.01-.28-.35-.5-.74-.67-1.15.84.28 1.72.42 2.6.45h.24c1.4 0 2.79-.32 4.05-.94-.21-.12-.41-.25-.6-.4 1.4-.54 2.64-1.42 3.6-2.58.45-.53.82-1.12 1.13-1.74-.48.17-.97.27-1.48.3-.11.01-.22.01-.33.01h-.1c.06-.25.11-.52.14-.78l.02-.52c0-.2-.01-.4-.03-.59-.51.25-1.06.42-1.62.49-.16.03-.32.04-.48.05.05-.26.08-.52.1-.78v-.26c0-.37-.04-.74-.11-1.11-.4.24-.83.42-1.28.54l-.49.11-.01-.01c.05-.24.08-.49.1-.73l.01-.29a4.99 4.99 0 0 0-.09-.94 5.8 5.8 0 0 1-1.94 1.35c-.74.32-1.53.48-2.32.48-.95 0-1.87-.23-2.71-.66.38-.15.74-.34 1.08-.57-.89-.43-1.65-1.1-2.17-1.94-.53-.84-.81-1.81-.81-2.8z"/><path transform="translate(13.87)" d="M2.07 9.55c0 .27-.02.53-.06.79.47-.04.92-.15 1.35-.32.23-.09.45-.19.66-.31l.07.53a5.34 5.34 0 0 1 .01.4c0 .36-.04.73-.11 1.08.54-.02 1.08-.13 1.59-.32.36-.97.55-2.01.55-3.06l-.02-.68C6.06 7 5.93 6.34 5.73 5.7a3.23 3.23 0 0 1-.3.62 7.86 7.86 0 0 0-1.08-2.93A7.76 7.76 0 0 0 2.22 1.1C1.62.68.97.34.28.09L0 0a5.91 5.91 0 0 1 1.19 2.89c0 .04.01.08.01.11 0 .05.01.09.01.13v.02c0 .03.01.07.01.11v.11c0 .03 0 .06.01.09v.06.09A5.85 5.85 0 0 1 .17 6.97a5.04 5.04 0 0 1 .11 1.09c0 .25-.01.5-.05.74.34-.08.66-.19.97-.33a5.44 5.44 0 0 0 .67-.37l.11.47c.06.32.09.65.09.98z"/></g></g></g></g></svg>

<svg xmlns="http://www.w3.org/2000/svg" xmlns:xlink="http://www.w3.org/1999/xlink" width="32" height="32" viewBox="0 0 32 32" fill="none"><defs><rect id="path_0" x="0" y="0" width="32" height="32" /><filter id="filter_10" x="0" y="0" width="19.12" height="18.54" filterUnits="userSpaceOnUse" color-interpolation-filters="sRGB"></filter><filter id="filter_14" x="0" y="0" width="6.13" height="11.72" filterUnits="userSpaceOnUse" color-interpolation-filters="sRGB"></filter></defs><g opacity="1" transform="translate(0 0)  rotate(0 16 16)"><mask id="bg-mask-0" fill="white"><use xlink:href="#path_0"></use></mask><g mask="url(#bg-mask-0)" ><g opacity="1" transform="translate(0 0)  rotate(0 16 16)"><path id="矩形 1" fill-rule="evenodd" transform="translate(0 0)  rotate(0 16 16)" opacity="1" d="M32,32L32,0L0,0L0,32L32,32Z " /><g opacity="1" transform="translate(6 6.722924592294021)  rotate(0 10.000183560919485 9.274746899179316)"><g opacity="1" transform="translate(0 0.009493798358633398)  rotate(0 9.56 9.27)"><path id="路径 3" fill-rule="evenodd" style="fill:#FFFFFF" transform="translate(0 0)  rotate(0 9.56 9.27)" opacity="1" d="M4.6,3.53C4.6,3.22 4.63,2.9 4.69,2.59C4.74,2.28 4.83,1.98 4.94,1.68C5.05,1.39 5.18,1.11 5.34,0.85C5.52,0.54 5.73,0.26 5.97,0C5.17,0.37 4.42,0.83 3.73,1.39C2,2.8 0.79,4.75 0.27,6.92C0.09,7.69 0,8.48 0,9.27C0,10.97 0.42,12.65 1.24,14.14C1.3,13.65 1.42,13.17 1.61,12.72C2.23,14.21 3.21,15.52 4.45,16.53C5.7,17.55 7.18,18.24 8.77,18.54C8.49,18.19 8.27,17.8 8.1,17.39C8.94,17.67 9.82,17.81 10.7,17.84C10.78,17.84 10.86,17.84 10.94,17.84C12.34,17.84 13.73,17.52 14.99,16.9C14.78,16.78 14.58,16.65 14.39,16.5C15.79,15.96 17.03,15.08 17.99,13.92C18.44,13.39 18.81,12.8 19.12,12.18C18.64,12.35 18.15,12.45 17.64,12.48C17.53,12.49 17.42,12.49 17.31,12.49C17.28,12.49 17.24,12.49 17.21,12.49C17.27,12.24 17.32,11.97 17.35,11.71C17.36,11.54 17.37,11.36 17.37,11.19C17.37,10.99 17.36,10.79 17.34,10.6C16.83,10.85 16.28,11.02 15.72,11.09C15.56,11.12 15.4,11.13 15.24,11.14C15.29,10.88 15.32,10.62 15.34,10.36C15.34,10.28 15.34,10.19 15.34,10.1C15.34,9.73 15.3,9.36 15.23,8.99C14.83,9.23 14.4,9.41 13.95,9.53C13.79,9.57 13.63,9.61 13.46,9.64L13.45,9.63C13.5,9.39 13.53,9.14 13.55,8.9C13.55,8.8 13.56,8.71 13.56,8.61C13.56,8.3 13.53,7.98 13.47,7.67C12.92,8.25 12.26,8.71 11.53,9.02C10.79,9.34 10,9.5 9.21,9.5C8.26,9.5 7.34,9.27 6.5,8.84C6.88,8.69 7.24,8.5 7.58,8.27C6.69,7.84 5.93,7.17 5.41,6.33C4.88,5.49 4.6,4.52 4.6,3.53Z " /></g><g opacity="1" transform="translate(13.87036712183897 0)  rotate(0 3.0649999999999995 5.86)"><path id="路径 4" fill-rule="evenodd" style="fill:#FFFFFF" transform="translate(0 0)  rotate(0 3.065 5.86)" opacity="1" d="M2.07,9.55C2.07,9.82 2.05,10.08 2.01,10.34C2.48,10.3 2.93,10.19 3.36,10.02C3.59,9.93 3.81,9.83 4.02,9.71C4.05,9.89 4.07,10.06 4.09,10.24C4.1,10.37 4.1,10.51 4.1,10.64C4.1,11 4.06,11.37 3.99,11.72C4.53,11.7 5.07,11.59 5.58,11.4C5.94,10.43 6.13,9.39 6.13,8.34C6.13,8.12 6.13,7.89 6.11,7.66C6.06,7 5.93,6.34 5.73,5.7C5.65,5.92 5.55,6.13 5.43,6.32C5.27,5.28 4.9,4.28 4.35,3.39C3.8,2.49 3.08,1.71 2.22,1.1C1.62,0.68 0.97,0.34 0.28,0.09C0.19,0.06 0.09,0.03 0,0C0.65,0.84 1.06,1.84 1.19,2.89C1.19,2.93 1.2,2.97 1.2,3C1.2,3.01 1.2,3.01 1.2,3.01C1.2,3.05 1.21,3.09 1.21,3.13L1.21,3.15C1.21,3.18 1.22,3.22 1.22,3.26C1.22,3.3 1.22,3.34 1.22,3.37C1.22,3.4 1.22,3.43 1.23,3.46C1.23,3.46 1.23,3.46 1.23,3.47C1.23,3.48 1.23,3.5 1.23,3.52C1.23,3.55 1.23,3.58 1.23,3.61C1.23,4.81 0.86,5.99 0.17,6.97C0.25,7.33 0.28,7.7 0.28,8.06C0.28,8.31 0.27,8.56 0.23,8.8C0.57,8.72 0.89,8.61 1.2,8.47C1.43,8.36 1.66,8.24 1.87,8.1C1.91,8.25 1.95,8.41 1.98,8.57C2.04,8.89 2.07,9.22 2.07,9.55Z " /></g></g></g></g></g></svg>
